svg/color/abt.svg

<svg height="32" viewBox="0 0 32 32" width="32" xmlns="http://www.w3.org/2000/svg"><g fill="none" fill-rule="evenodd"><circle cx="16" cy="16" fill="#3effff" r="16"/><path d="m6.5 10.4865526 9.5-5.4865526 9.5 5.4865526v11.0268948l-9.5 5.4865526-9.5-5.4865526zm.91242938 9.970021 3.80946742-2.2042085 1.9334777-3.3857801-5.74294512-3.3229444zm.45621537.7919153 7.70197675 4.4481368v-4.2559543l-4.0377671-2.312343zm16.71892585-9.6737928-5.6914713 3.293161 1.9315906 3.382144 3.7598807 2.175517zm-.4291688-.8075647-7.675351-4.43275964v4.30832614l1.9597955 3.4315298zm-6.0477828 4.555215-1.1713535.6777607 2.3244789 1.3449744zm-.4526371-.7939857-1.1749311-2.060985v2.7408157zm-4.8638939 2.8143137 2.3203188-1.3425673-1.1691452-.6764829zm-.3464435 1.2563443 3.122977 1.7884622v-3.5954582zm-4.57918501-7.8474006 5.74013461 3.3213182 1.9620274-3.4357744v-4.33378761zm16.28975701 10.4813575-3.6361176-2.103906-4.0390481 2.340945v4.1956136zm-4.5481671-2.6316299-3.1269986-1.809323v3.6216638zm-5.2121066-4.0716817 1.1726787.6785274v-2.7352954z" fill="#fff" fill-rule="nonzero"/></g></svg>

<svg xmlns="http://www.w3.org/2000/svg" width="32" height="32" viewBox="0 0 32 32">
  <g fill="none" fill-rule="evenodd">
    <circle cx="16" cy="16" r="16" fill="#3EFFFF"/>
    <path fill="#FFF" fill-rule="nonzero" d="M6.5,10.4865526 L16,5 L25.5,10.4865526 L25.5,21.5134474 L16,27 L6.5,21.5134474 L6.5,10.4865526 Z M7.41242938,20.4565736 L11.2218968,18.2523651 L13.1553745,14.866585 L7.41242938,11.5436406 L7.41242938,20.4565736 Z M7.86864475,21.2484889 L15.5706215,25.6966257 L15.5706215,21.4406714 L11.5328544,19.1283284 L7.86864475,21.2484889 Z M24.5875706,11.5746961 L18.8960993,14.8678571 L20.8276899,18.2500011 L24.5875706,20.4255181 L24.5875706,11.5746961 Z M24.1584018,10.7671314 L16.4830508,6.33437176 L16.4830508,10.6426979 L18.4428463,14.0742277 L24.1584018,10.7671314 Z M18.110619,15.3223464 L16.9392655,16.0001071 L19.2637444,17.3450815 L18.110619,15.3223464 Z M17.6579819,14.5283607 L16.4830508,12.4673757 L16.4830508,15.2081914 L17.6579819,14.5283607 Z M12.794088,17.3426744 L15.1144068,16.0001071 L13.9452616,15.3236242 L12.794088,17.3426744 Z M12.4476445,18.5990187 L15.5706215,20.3874809 L15.5706215,16.7920227 L12.4476445,18.5990187 Z M7.86845949,10.7516181 L13.6085941,14.0729363 L15.5706215,10.6371619 L15.5706215,6.30337429 L7.86845949,10.7516181 Z M24.1582165,21.2329756 L20.5220989,19.1290696 L16.4830508,21.4700146 L16.4830508,25.6656282 L24.1582165,21.2329756 Z M19.6100494,18.6013457 L16.4830508,16.7920227 L16.4830508,20.4136865 L19.6100494,18.6013457 Z M14.3979428,14.529664 L15.5706215,15.2081914 L15.5706215,12.472896 L14.3979428,14.529664 Z"/>
  </g>
</svg>
